assets/efishery/karung-pakan-ikan.svg

<svg width="24" height="25" viewBox="0 0 24 25" fill="none" xmlns="http://www.w3.org/2000/svg">
<path fill-rule="evenodd" clip-rule="evenodd" d="M13.0114 10.9746C12.3716 10.9746 11.7954 11.1665 11.3731 11.4096C11.1913 11.5142 11.0277 11.6342 10.8959 11.7627L9.83779 11.0573C9.68669 10.9566 9.49242 10.9472 9.33232 11.0329C9.17221 11.1186 9.07227 11.2854 9.07227 11.467V13.4366C9.07227 13.6182 9.17221 13.785 9.33232 13.8707C9.49242 13.9564 9.68669 13.947 9.83779 13.8463L10.8959 13.1408C11.0277 13.2694 11.1913 13.3894 11.3731 13.494C11.7954 13.7371 12.3716 13.929 13.0114 13.929C13.6151 13.929 14.1861 13.8076 14.6243 13.5885C15.0331 13.3842 15.4733 13.0107 15.4733 12.4518C15.4733 11.8929 15.0331 11.5194 14.6243 11.315C14.1861 11.0959 13.6151 10.9746 13.0114 10.9746ZM13.9962 12.2056C13.9962 12.0696 14.1064 11.9594 14.2424 11.9594C14.3783 11.9594 14.4886 12.0696 14.4886 12.2056C14.4886 12.3416 14.3783 12.4518 14.2424 12.4518C14.1064 12.4518 13.9962 12.3416 13.9962 12.2056Z" fill="#1D1D1D"/>
<path fill-rule="evenodd" clip-rule="evenodd" d="M6.65625 12.454C6.65625 9.48824 9.06051 7.08398 12.0263 7.08398C14.9921 7.08398 17.3964 9.48824 17.3964 12.454C17.3964 15.4199 14.9921 17.8241 12.0263 17.8241C9.06051 17.8241 6.65625 15.4199 6.65625 12.454ZM12.0263 7.97629C9.55332 7.97629 7.54856 9.98105 7.54856 12.454C7.54856 14.927 9.55332 16.9318 12.0263 16.9318C14.4993 16.9318 16.5041 14.927 16.5041 12.454C16.5041 9.98105 14.4993 7.97629 12.0263 7.97629Z" fill="#1D1D1D"/>
<path fill-rule="evenodd" clip-rule="evenodd" d="M19.6406 6.61199C20.1549 5.62802 20.4278 4.83965 20.4533 4.22023C20.4676 3.87151 20.4056 3.52698 20.2137 3.23422C20.0165 2.93321 19.7299 2.76014 19.4355 2.67552C18.8956 2.52031 18.2623 2.64092 17.7383 2.80217C17.2952 2.93849 16.8427 3.13228 16.4346 3.33779C15.3172 2.87818 13.7458 2.6741 12.148 2.6741C10.4648 2.6741 8.65284 2.90076 7.1399 3.36672C6.15452 2.93757 5.37907 2.72313 4.78923 2.7358C4.45836 2.74291 4.12413 2.82275 3.85256 3.04001C3.57111 3.26517 3.44003 3.57103 3.39797 3.8636C3.32181 4.39344 3.51941 4.98584 3.73478 5.46443C3.91772 5.87094 4.1548 6.28299 4.39712 6.653C3.93856 8.24417 3.72359 10.6153 3.72359 12.8219C3.72359 14.0124 3.78612 15.18 3.91355 16.1836C4.0145 16.9786 4.16133 17.7161 4.37222 18.2859C3.80083 19.1431 3.46393 19.8412 3.36314 20.4055C3.30494 20.7313 3.3145 21.0731 3.46572 21.382C3.62392 21.7051 3.89235 21.9013 4.17334 22.005C4.67801 22.1913 5.29602 22.1094 5.79877 21.9897C6.25407 21.8813 6.727 21.713 7.15111 21.5323C10.5411 22.4638 13.5071 22.4639 16.8968 21.5328C17.8884 21.9657 18.668 22.1821 19.2604 22.1693C19.5913 22.1622 19.9255 22.0824 20.1971 21.8651C20.4785 21.64 20.6096 21.3341 20.6517 21.0415C20.7279 20.5117 20.5303 19.9193 20.3149 19.4407C20.138 19.0475 19.9104 18.6492 19.6764 18.2887C19.8879 17.7185 20.0351 16.9799 20.1362 16.1836C20.2636 15.1801 20.3262 14.0124 20.3262 12.8219C20.3262 10.5963 20.1075 8.20325 19.6406 6.61199ZM18.1319 4.08145C17.6862 4.21857 17.2011 4.43801 16.7768 4.66943C16.5845 4.77433 16.353 4.77847 16.1571 4.68049C15.3122 4.25803 13.8372 4.01256 12.148 4.01256C10.4784 4.01256 8.7062 4.25227 7.31256 4.71681C7.15231 4.77022 6.97778 4.76106 6.824 4.69116C5.75688 4.20611 5.13648 4.06711 4.81797 4.07395C4.77436 4.07489 4.7425 4.07847 4.72007 4.08238C4.71226 4.22116 4.76897 4.50099 4.95535 4.91516C5.14113 5.328 5.40876 5.77315 5.67962 6.16009C5.80112 6.33366 5.83326 6.5545 5.76626 6.75549C5.30846 8.12896 5.06205 10.5044 5.06205 12.8219C5.06205 13.9702 5.12261 15.0798 5.24136 16.015C5.36273 16.9709 5.53705 17.6761 5.72995 18.062C5.83978 18.2816 5.82047 18.5438 5.67963 18.745C5.00087 19.7147 4.73946 20.3122 4.68076 20.6408C4.67119 20.6944 4.66851 20.7328 4.66844 20.7588C4.79322 20.7895 5.06252 20.7891 5.48875 20.6876C5.91982 20.585 6.39907 20.4071 6.824 20.214C6.96866 20.1482 7.13199 20.1361 7.28478 20.1797C10.6114 21.1302 13.4384 21.1302 16.7649 20.1797C16.9177 20.1361 17.081 20.1482 17.2257 20.214C18.2928 20.699 18.9132 20.838 19.2317 20.8312C19.2753 20.8302 19.3072 20.8267 19.3296 20.8227C19.3374 20.684 19.2807 20.4041 19.0943 19.99C18.9085 19.5771 18.6409 19.132 18.3701 18.745C18.2292 18.5438 18.2099 18.2816 18.3197 18.062C18.5127 17.6761 18.687 16.9709 18.8084 16.015C18.9271 15.0798 18.9877 13.9702 18.9877 12.8219C18.9877 10.5044 18.7413 8.12898 18.2834 6.75551C18.2247 6.57926 18.2418 6.38651 18.3308 6.22341C18.9111 5.15945 19.1015 4.5154 19.1159 4.16518C19.1209 4.04486 19.1037 3.99002 19.0966 3.97305C19.0911 3.97035 19.0815 3.96641 19.0658 3.9619C18.9206 3.92016 18.608 3.93496 18.1319 4.08145Z" fill="#1D1D1D"/>
</svg>

<svg viewBox="0 0 24 25" xmlns="http://www.w3.org/2000/svg">
  <path fill-rule="evenodd" clip-rule="evenodd" d="M13.011 10.975c-.64 0-1.216.191-1.638.435a2.406 2.406 0 0 0-.477.353l-1.058-.706a.492.492 0 0 0-.766.41v1.97a.492.492 0 0 0 .766.41l1.058-.706c.132.128.295.248.477.353.422.243.999.435 1.638.435.604 0 1.175-.121 1.613-.34.41-.205.85-.578.85-1.137 0-.56-.44-.933-.85-1.137-.438-.22-1.009-.34-1.613-.34zm.985 1.23a.246.246 0 1 1 .493 0 .246.246 0 0 1-.493 0z"/>
  <path fill-rule="evenodd" clip-rule="evenodd" d="M6.656 12.454a5.37 5.37 0 1 1 10.74 0 5.37 5.37 0 0 1-10.74 0zm5.37-4.478a4.478 4.478 0 1 0 0 8.956 4.478 4.478 0 0 0 0-8.956z"/>
  <path fill-rule="evenodd" clip-rule="evenodd" d="M19.64 6.612c.515-.984.788-1.772.813-2.392.015-.348-.047-.693-.24-.986a1.358 1.358 0 0 0-.777-.558c-.54-.156-1.174-.035-1.698.126a8.58 8.58 0 0 0-1.303.536c-1.118-.46-2.69-.664-4.287-.664-1.683 0-3.495.227-5.008.693-.985-.43-1.76-.644-2.35-.631-.332.007-.666.087-.937.304a1.261 1.261 0 0 0-.455.824c-.076.53.121 1.122.337 1.6.183.407.42.819.662 1.189-.458 1.591-.673 3.962-.673 6.169 0 1.19.062 2.358.19 3.362.1.795.247 1.532.458 2.102-.571.857-.908 1.555-1.009 2.12-.058.325-.049.667.103.976.158.323.426.52.707.623.505.186 1.123.104 1.626-.015a8.67 8.67 0 0 0 1.352-.458c3.39.932 6.356.932 9.746 0 .991.434 1.771.65 2.363.637.331-.007.665-.087.937-.304.282-.225.413-.53.455-.823.076-.53-.122-1.123-.337-1.601a8.801 8.801 0 0 0-.639-1.152c.212-.57.36-1.31.46-2.105.128-1.004.19-2.172.19-3.362 0-2.226-.218-4.619-.685-6.21zm-1.508-2.53c-.446.137-.93.356-1.355.587a.67.67 0 0 1-.62.011c-.845-.422-2.32-.667-4.009-.667-1.67 0-3.442.24-4.835.704a.67.67 0 0 1-.489-.026c-1.067-.485-1.688-.624-2.006-.617a.658.658 0 0 0-.098.008c-.008.14.049.419.235.833.186.413.454.858.725 1.245a.67.67 0 0 1 .086.595c-.458 1.374-.704 3.75-.704 6.067 0 1.148.06 2.258.18 3.193.12.956.295 1.661.488 2.047a.67.67 0 0 1-.05.683c-.68.97-.94 1.567-1 1.896a.691.691 0 0 0-.012.118c.125.03.395.03.82-.071.432-.103.911-.28 1.336-.474a.67.67 0 0 1 .46-.034c3.327.95 6.154.95 9.48 0a.67.67 0 0 1 .462.034c1.067.485 1.687.624 2.006.617a.652.652 0 0 0 .098-.008c.007-.139-.05-.419-.236-.833a8.01 8.01 0 0 0-.724-1.245.67.67 0 0 1-.05-.683c.193-.386.367-1.091.488-2.047.12-.935.18-2.045.18-3.193 0-2.318-.247-4.693-.705-6.066a.67.67 0 0 1 .048-.533c.58-1.064.77-1.708.785-2.058a.475.475 0 0 0-.02-.192.191.191 0 0 0-.03-.011c-.145-.042-.458-.027-.934.12z"/>
</svg>
